Newaita/actions/24/align-horizontal-left.svg

<?xml version="1.0" encoding="UTF-8"?>
<svg xmlns="http://www.w3.org/2000/svg" xmlns:xlink="http://www.w3.org/1999/xlink" width="24pt" height="24pt" viewBox="0 0 24 24" version="1.1">
<g id="surface1">
<path style=" stroke:none;fill-rule:nonzero;fill:rgb(100%,43.921569%,26.274511%);fill-opacity:0.988235;" d="M 1.488281 21.273438 L 1.488281 2.917969 C 1.488281 2.503906 1.820312 2.171875 2.234375 2.171875 C 2.644531 2.171875 2.976562 2.503906 2.976562 2.917969 L 2.976562 21.273438 C 2.976562 21.683594 2.644531 22.019531 2.234375 22.019531 C 1.820312 22.019531 1.488281 21.683594 1.488281 21.273438 Z M 1.488281 21.273438 "/>
<path style=" stroke:none;fill-rule:nonzero;fill:rgb(25.882354%,25.882354%,25.882354%);fill-opacity:0.988235;" d="M 4.960938 20.53125 C 4.960938 21.355469 5.625 22.019531 6.449219 22.019531 L 11.410156 22.019531 C 12.234375 22.019531 12.898438 21.355469 12.898438 20.53125 L 12.898438 15.566406 C 12.898438 14.742188 12.234375 14.078125 11.410156 14.078125 L 6.449219 14.078125 C 5.625 14.078125 4.960938 14.742188 4.960938 15.566406 Z M 6.449219 20.03125 L 6.449219 16.0625 C 6.449219 15.789062 6.671875 15.566406 6.945312 15.566406 L 10.914062 15.566406 C 11.191406 15.566406 11.410156 15.789062 11.410156 16.0625 L 11.410156 20.03125 C 11.410156 20.308594 11.191406 20.53125 10.914062 20.53125 L 6.945312 20.53125 C 6.671875 20.53125 6.449219 20.308594 6.449219 20.03125 Z M 6.449219 20.03125 "/>
<path style=" stroke:none;fill-rule:nonzero;fill:rgb(25.882354%,25.882354%,25.882354%);fill-opacity:0.988235;" d="M 4.960938 8.621094 C 4.960938 9.445312 5.625 10.109375 6.449219 10.109375 L 20.839844 10.109375 C 21.664062 10.109375 22.328125 9.445312 22.328125 8.621094 L 22.328125 3.660156 C 22.328125 2.835938 21.664062 2.171875 20.839844 2.171875 L 6.449219 2.171875 C 5.625 2.171875 4.960938 2.835938 4.960938 3.660156 Z M 6.449219 8.125 L 6.449219 4.15625 C 6.449219 3.882812 6.671875 3.660156 6.945312 3.660156 L 20.339844 3.660156 C 20.617188 3.660156 20.839844 3.882812 20.839844 4.15625 L 20.839844 8.125 C 20.839844 8.402344 20.617188 8.621094 20.339844 8.621094 L 6.945312 8.621094 C 6.671875 8.621094 6.449219 8.402344 6.449219 8.125 Z M 6.449219 8.125 "/>
</g>
</svg>

<svg xmlns="http://www.w3.org/2000/svg" width="32" height="32" viewBox="0 0 24 24"><g fill-opacity=".988"><path d="M1.488 21.273V2.918a.744.744 0 1 1 1.489 0v18.355a.745.745 0 1 1-1.489 0zm0 0" fill="#ff7043"/><path d="M4.96 20.531c0 .824.665 1.489 1.49 1.489h4.96c.824 0 1.488-.665 1.488-1.489v-4.965c0-.824-.664-1.488-1.488-1.488H6.45c-.825 0-1.49.664-1.49 1.488zm1.49-.5v-3.968c0-.274.222-.497.495-.497h3.97c.276 0 .495.223.495.496v3.97c0 .277-.219.5-.496.5H6.945a.498.498 0 0 1-.496-.5zm0 0M4.96 8.621c0 .824.665 1.488 1.49 1.488h14.39c.824 0 1.488-.664 1.488-1.488v-4.96c0-.825-.664-1.49-1.488-1.49H6.45c-.825 0-1.49.665-1.49 1.49zm1.49-.496V4.156c0-.273.222-.496.495-.496H20.34c.277 0 .5.223.5.496v3.969a.495.495 0 0 1-.5.496H6.945a.494.494 0 0 1-.496-.496zm0 0" fill="#424242"/></g></svg>
